X:325
T: Sparrow's Nest
S: B.Breathnach: "Ceol Rince na hEireann" II/72 (gan ainm)
Z: B.Black
L: 1/8
M: 6/8
R: jig
K: D
D/E/|FGF FEF|B2A A2F|EEE F2D|E2D B2A|
FFF FEF|B2A A2F|EDE F2E|1 D3 D2 :|2 D3 D3||
D2A ded|B2B AFE|e3 edB|d3 d3|
D2A ded|B2A F2E|A2d edA|d3 d3 :|

